X: 39687
T: Tenpenny Piece, The
R: slip jig
M: 9/8
K: Gmajor
|:~g3 edB edB|gfg edB d2B|~g3 edB edB|1 ABA ABd e2f:|2 ABA ABd edc||
|:B2A GEE GEE|B2A GEF Gdc|B2A GEE GFE|1 DED (3DEF G AGA:|2 DED DEG ABd||

